X: 10238
T: Do You Want Any More?
R: jig
M: 6/8
K: Dmixolydian
G|FDF A2 B|BAd cAG|Ad^c d2 e|efd cAG|
FFF A2 B|BAd cAG|Adc A2 G|Ed^c d2:|
e|fdg fdc|Add B/c/de|efd edc|AAA d3|
aaa ggg|efd cAG|Adc A2 G|Ed^c d2:|

